img/quote.svg

<svg width="102" height="78" viewBox="0 0 102 78" fill="none" xmlns="http://www.w3.org/2000/svg">
<path d="M62.4659 31.9566L62.4652 31.9578L62.4614 31.9647L62.3188 32.2233H62.3185C59.6311 37.1431 58.2778 42.62 58.2778 48.6853C58.2778 57.5482 60.1593 64.5673 63.7895 69.8657C67.273 74.8542 73.1255 77.4995 81.7628 77.4995C87.1549 77.4995 91.1943 75.843 94.0824 72.6669L94.0846 72.6644L62.4659 31.9566ZM62.4659 31.9566C65.3139 26.7552 68.7674 22.1398 72.8259 18.1043C77.0186 13.9404 81.4576 10.4149 86.1425 7.5216C90.3247 4.93881 93.905 2.77345 96.8854 1.02417L100.877 7.32398C96.6117 9.67329 93.0919 11.7514 90.3264 13.5568C87.1915 15.5037 84.0352 18.0942 80.8544 21.3069C80.8539 21.3074 80.8534 21.3079 80.853 21.3084L80.8518 21.3095M62.4659 31.9566L80.8518 21.3095M80.8518 21.3095C77.7376 24.462 75.3415 27.7499 73.6957 31.1786L73.6933 31.1836L73.6933 31.1835M80.8518 21.3095L73.6933 31.1835M73.6933 31.1835L73.6897 31.1912M73.6933 31.1835L73.6897 31.1912M73.6897 31.1912L73.6866 31.1979L73.6863 31.1985M73.6897 31.1912L73.6863 31.1985M73.6863 31.1985C72.1399 34.5457 71.0712 38.8541 70.436 44.0677L70.2994 45.1885L70.2311 45.749M73.6863 31.1985L70.2311 45.749M70.2311 45.749H70.7957M70.2311 45.749H70.7957M70.7957 45.749H71.9249H79.4204C85.6483 45.749 90.313 47.2225 93.6036 49.9824L93.6045 49.9832M70.7957 45.749L93.6045 49.9832M93.6045 49.9832L93.616 49.9928L93.6159 49.9929M93.6045 49.9832L93.6159 49.9929M93.6159 49.9929L93.6253 50.0004M93.6159 49.9929L93.6253 50.0004M93.6253 50.0004L93.637 50.0097L93.6384 50.0107M93.6253 50.0004L93.6384 50.0107M93.6384 50.0107C96.9467 52.6214 98.689 56.5258 98.689 61.994M93.6384 50.0107L98.689 61.994M98.689 61.994C98.689 65.6893 97.2156 69.2353 94.0867 72.662L98.689 61.994ZM23.0753 21.3082L23.0752 21.3084L23.0728 21.3108C20.0589 24.3688 17.7173 27.6074 16.0741 31.0307C14.4185 34.4799 13.2948 38.843 12.6582 44.0677L12.5216 45.1885L12.4533 45.749H13.0179H14.1471H21.6426C27.8705 45.749 32.5352 47.2225 35.8259 49.9824L35.8365 49.9913L35.8419 49.996L35.8475 50.0004L35.8592 50.0097L35.8606 50.0107C39.1689 52.6214 40.9114 56.5259 40.9114 61.994C40.9114 65.6902 39.4372 69.2369 36.3068 72.6644L36.3067 72.6644L36.3047 72.6668C36.3036 72.6681 36.3025 72.6693 36.3014 72.6704C33.4134 75.8443 29.3751 77.4995 23.985 77.4995C15.3476 77.4995 9.49497 74.8541 6.01157 69.8654C2.3815 64.5671 0.5 57.548 0.5 48.6853C0.5 42.62 1.85333 37.1431 4.54076 32.2233H4.54116L4.68368 31.9645L4.68748 31.9576L4.68805 31.9566C7.53609 26.7552 10.9897 22.1398 15.0482 18.1043C19.2408 13.9404 23.6799 10.4149 28.3647 7.5216C32.5469 4.9388 36.1273 2.77344 39.1077 1.02416L43.0992 7.32398C38.8339 9.67328 35.3142 11.7514 32.5486 13.5568C29.4134 15.5039 26.2566 18.0948 23.0753 21.3082Z" stroke="#DADEDF"/>
</svg>

<svg width="102" height="78" fill="none" xmlns="http://www.w3.org/2000/svg"><path d="M62.466 31.957l-.005.008-.142.258c-2.688 4.92-4.041 10.397-4.041 16.462 0 8.863 1.881 15.882 5.511 21.18 3.484 4.99 9.337 7.635 17.974 7.635 5.392 0 9.431-1.657 12.32-4.833l.002-.003-31.62-40.707zm0 0c2.848-5.202 6.301-9.817 10.36-13.853 4.193-4.164 8.632-7.69 13.317-10.582a571.411 571.411 0 0 1 10.742-6.498l3.992 6.3c-4.265 2.35-7.785 4.427-10.55 6.233-3.135 1.947-6.292 4.537-9.473 7.75l-.001.001-.001.002M62.466 31.956l18.386-10.648m0 0c-3.114 3.153-5.51 6.44-7.156 9.87l-.003.005m7.159-9.875l-7.159 9.874m0 0l-.003.008m.003-.008l-.003.008m0 0l-.003.007m.003-.007l-.004.008m0 0c-1.546 3.347-2.615 7.655-3.25 12.869l-.137 1.12-.068.561m3.455-14.55l-3.455 14.55m0 0h.565m-.565 0h.565m0 0h8.624c6.228 0 10.893 1.473 14.184 4.233v.001M70.797 45.75l22.808 4.234m0 0l.012.01m-.011-.01l.01.01m0 0l.01.007m-.01-.007l.01.007m0 0l.012.01h.001m-.013-.01l.013.01m0 0c3.309 2.611 5.051 6.516 5.051 11.984m-5.05-11.983l5.05 11.983m0 0c0 3.695-1.473 7.241-4.602 10.668l4.602-10.668zM23.075 21.308l-.002.003c-3.014 3.058-5.356 6.296-6.999 9.72-1.656 3.449-2.78 7.812-3.416 13.037l-.136 1.12-.069.561h9.19c6.227 0 10.892 1.473 14.183 4.233l.01.01.006.004.005.004.012.01h.002c3.308 2.611 5.05 6.516 5.05 11.984 0 3.696-1.474 7.243-4.604 10.67l-.002.003a.059.059 0 0 1-.004.003c-2.888 3.174-6.926 4.83-12.316 4.83-8.637 0-14.49-2.646-17.973-7.635C2.382 64.567.5 57.548.5 48.685c0-6.065 1.353-11.542 4.04-16.462h.001l.143-.258.003-.007.001-.001c2.848-5.202 6.302-9.817 10.36-13.853 4.193-4.164 8.632-7.69 13.317-10.582a571.335 571.335 0 0 1 10.743-6.498l3.991 6.3c-4.265 2.35-7.785 4.427-10.55 6.233-3.136 1.947-6.292 4.538-9.474 7.751z" stroke="#DADEDF"/></svg>
